X:994
T:Bagl\ae{}ns Kontrasejre
S:Hans Ole Larsen
R:Other
O:Denmark
M:2/4
L:1/8
K:D
A, |\
DD/D/ DD/D/ | DF AF | EE/E/ EE/E/ | EG BG |\
AA/A/ AA/A/ | Ad fa | ga/g/ fg/f/ | e3 :|
|:a |\
af df | (3gec A2 | ge ce | (3fdB F2 |\
DD/D/ DF | AA/A/ Af | ge cA | d3 :|
K:G
|: d |\
dB BB | B2AB | cB AG | FE Dd |\
dB BB | B2AB | cA FD | G3 :|
|: G |\
FG AB | c2AF | GA Bc | d2BG |\
FG AB | c2AF | GB AF | G3 :|**


